X: 1
T: David Anderson Shand
C: Jimmy Shand
R: march
B: Jimmy Shand, Scottish Dance Album Book 2 (1953) Pub. James S.Kerr, Glasgow
Z: John Chambers <jc:trillian.mit.edu>
M: 2/4
L: 1/16
K: A
e2 \
| "A"A2A>B c>Bc>d | e2A2 f>ed>c |    e2A2     f>ed>c | "G"d2=G>B e>dB>G |
| "A"A2A>B c>Bc>d | e2A2 f>ed>c | "G"d>=GB>=g d>Be>B | "A"c2A2   A2 :|
|: e2 \
| "A"a3e c2e2 | e>Ac>f f>ed>c | "G"=g3d     B2d2   |    d>=GB>e e>dB>G |
| "A"a3e c2e2 | e>Ac>f f>ed>c | "G"d>=GB>=g d>Be>B | "A"c2A2    A2 :|
|: e2 \
| "A"A>AA>c e>Ac>A | e>Ac>f f>ec>=g | "G"=G>G>B   d>GB>G |    d>=GB>e e>dB>G |
| "A"A>AA>c e>Ac>A | e>Ac>f f>ed>c  | "G"d>=GB>=g d>Be>B | "A"c2A2    A2 :|
|: e2 \
| "A"a>^ga>f e>ac>a | (3AAA ce f>ec>e | "G"=g>fg>e  d>gB>g | (3=GGG Bd e>dB>d |
| "A"a>^ga>f e>ac>a | (3AAA ce f>ec>e | "G"d>=GB>=g d>Be>B | "A"c2A2   A2 :|
